findly-builder/apps/searchassist/src/assets/icons/sidemenu/pin.svg

<svg width="12" height="12" viewBox="0 0 12 12" fill="none" xmlns="http://www.w3.org/2000/svg">
<path d="M7.04948 0.15215C7.14335 0.0567905 7.27095 0.00216373 7.40475 5.97796e-05C7.47302 -0.000985776 7.5408 0.0116934 7.60408 0.0373451C7.66735 0.0629968 7.72483 0.101098 7.7731 0.149388L11.8508 4.22704C11.9221 4.29833 11.9706 4.38914 11.9902 4.488C12.0099 4.58685 11.9998 4.68931 11.9612 4.78243C11.9226 4.87555 11.8573 4.95514 11.7735 5.01115C11.6897 5.06717 11.5912 5.09708 11.4904 5.09712H9.67258L7.92243 6.95675V9.68448C7.92239 9.78526 7.89247 9.88378 7.83646 9.96757C7.78045 10.0514 7.70085 10.1167 7.60773 10.1552C7.51461 10.1938 7.41215 10.2039 7.31329 10.1843C7.21444 10.1646 7.12362 10.1161 7.05233 10.0449L4.86414 7.8567L0.870045 11.8507C0.67101 12.0498 0.348311 12.0498 0.149276 11.8507C-0.0497588 11.6517 -0.0497586 11.329 0.149276 11.13L4.14337 7.13595L1.95518 4.94779C1.88394 4.8765 1.83542 4.78569 1.81578 4.68683C1.79613 4.58798 1.80623 4.48552 1.8448 4.3924C1.88337 4.29928 1.94867 4.21969 2.03247 4.16368C2.11626 4.10766 2.21477 4.07775 2.31556 4.07771H5.1628L6.903 2.33754V0.509766C6.903 0.375956 6.95561 0.24751 7.04948 0.15215Z" fill="#202124"/>
</svg>

<svg width="12" height="12" fill="none" xmlns="http://www.w3.org/2000/svg"><path d="M7.05.152A.51.51 0 0 1 7.772.15l4.078 4.078a.509.509 0 0 1-.36.87H9.672l-1.75 1.86v2.727a.51.51 0 0 1-.87.36L4.863 7.858.87 11.85a.51.51 0 1 1-.72-.721l3.993-3.994-2.188-2.188a.51.51 0 0 1 .36-.87h2.848l1.74-1.74V.51a.51.51 0 0 1 .146-.358Z" fill="#202124"/></svg>
